icons/2_Variations/WeTransfer bg.var.svg

<svg width="1024" height="1024" viewBox="0 0 1024 1024" fill="none" xmlns="http://www.w3.org/2000/svg">
<g clip-path="url(#clip0_3_329)">
<path d="M512 1024C794.77 1024 1024 794.77 1024 512C1024 229.23 794.77 0 512 0C229.23 0 0 229.23 0 512C0 794.77 229.23 1024 512 1024Z" fill="#9ABEFF"/>
<path d="M644.65 502.311C644.65 517.441 650.47 529.071 659.78 539.551C667.93 547.701 683.05 553.551 697.02 553.551C710.76 553.641 724.323 550.449 736.58 544.241C748.22 538.421 757.53 540.751 763.34 550.061C770.34 560.531 761.01 574.501 752.87 583.811C737.74 600.101 708.65 611.741 671.42 611.741C595.78 609.411 551.57 558.211 551.57 490.741C551.57 418.591 602.77 375.541 669.1 375.541C728.45 375.541 768.01 405.791 768.01 447.691C768.01 487.251 734.26 512.851 697.01 512.851C676.06 512.851 660.94 509.361 650.46 501.211C647 497.651 644.65 498.821 644.65 502.311ZM509.65 382.461C480.56 376.641 439.83 374.311 396.78 374.311C353.73 374.311 313 376.641 283.91 381.311C261.82 385.951 256 397.581 256 417.361C256 437.141 260.65 460.411 270 499.981C277.335 528.149 286.669 555.759 297.93 582.601C306.08 600.051 313.06 605.871 328.18 605.871C343.3 605.871 350.29 596.561 358.43 583.761L379.35 550.001C385.17 543.001 389.82 538.361 396.8 538.361C403.78 538.361 408.44 541.851 413.09 550.001L434 583.761C442.15 596.561 449.13 605.871 464.25 605.871C479.37 605.871 487.52 600.051 494.5 582.601C506.473 556.037 515.841 528.374 522.47 500.001C532.94 460.441 537.6 437.161 537.6 417.381C537.6 397.601 531.78 385.951 509.67 382.451L509.65 382.461Z" fill="white"/>
</g>
<defs>
<clipPath id="clip0_3_329">
<rect width="1024" height="1024" fill="white"/>
</clipPath>
</defs>
</svg>

<svg xmlns="http://www.w3.org/2000/svg" width="1024" height="1024" fill="none">
   <g clip-path="url(#a)">
      <path fill="#9ABEFF" d="M512 1024c282.77 0 512-229.23 512-512S794.77 0 512 0 0 229.23 0 512s229.23 512 512 512Z"/>
      <path fill="#fff" d="M644.65 502.311c0 15.13 5.82 26.76 15.13 37.24 8.15 8.15 23.27 14 37.24 14a86.304 86.304 0 0 0 39.56-9.31c11.64-5.82 20.95-3.49 26.76 5.82 7 10.47-2.33 24.44-10.47 33.75-15.13 16.29-44.22 27.93-81.45 27.93-75.64-2.33-119.85-53.53-119.85-121 0-72.15 51.2-115.2 117.53-115.2 59.35 0 98.91 30.25 98.91 72.15 0 39.56-33.75 65.16-71 65.16-20.95 0-36.07-3.49-46.55-11.64-3.46-3.56-5.81-2.39-5.81 1.1Zm-135-119.85c-29.09-5.82-69.82-8.15-112.87-8.15-43.05 0-83.78 2.33-112.87 7-22.09 4.64-27.91 16.27-27.91 36.05 0 19.78 4.65 43.05 14 82.62a612.615 612.615 0 0 0 27.93 82.62c8.15 17.45 15.13 23.27 30.25 23.27s22.11-9.31 30.25-22.11l20.92-33.76c5.82-7 10.47-11.64 17.45-11.64 6.98 0 11.64 3.49 16.29 11.64l20.91 33.76c8.15 12.8 15.13 22.11 30.25 22.11s23.27-5.82 30.25-23.27a450.38 450.38 0 0 0 27.97-82.6c10.47-39.56 15.13-62.84 15.13-82.62s-5.82-31.43-27.93-34.93l-.02.01Z"/>
   </g>
   <defs>
      <clipPath id="a">
         <path fill="#fff" d="M0 0h1024v1024H0z"/>
      </clipPath>
   </defs>
</svg>
